X:1
T:Across the Violet Sky
T:(Violet Evergarden)
T:By Evan Call Arr: Torby Brand
T:Arranged for piano
%%score { 1 | 2 }
L:1/8
Q:1/4=80
M:4/4
K:B
V:1 treble nm="Piano" snm="Pno."
V:2 bass 
V:1
 z4 f2 f2!mp! | f2 f6- | f8 || f/B/B f/B/B f/B/A/B/ f/B/B | f/B/B f/B/B f/B/F/B/ f/B/B | %5
 f/B/B f/B/B f/B/A/B/ f/B/B | f/B/B f/B/B B4 ||!8va(! !arpeggio![bd'b']8 | %8
 !arpeggio![ac'a']4 !arpeggio![faf']4 | !arpeggio![dgd']6 [gg']2 | [cfc']6 z d'/c'/ | %11
 [dfd']2 [ege']2 [ac'a']4 | [bd'b']4 [c'f'c'']4 | %13
 !arpeggio![d'f'd'']4 !arpeggio![f'a'f'']2 !arpeggio![g'g'']2 | [f'c'']8 | %15
 !arpeggio![f'b'f'']2"^rit." f'g' b'f'g'b' | f''8!8va)! ||!mf! z DCD FB,A,B, | C3 D D4 | %19
 z DCD FB,A,B, | F,2 B2 F2- FA | !arpeggio![FB]AFD FG B,>C | [B,D]2 B,2 B,2 B,2 | F2 A2 B2 A2 | %24
 B8 ||!ff! z [dfd'][cc'][dd'] !>![fc'f'][Bb][Aa][Bb] | !>![cegc']3 !>![dfbd'] !>![dfbd']2 [FAc]2 | %27
 [GBd][dfd'][cc'][dd'] !>![fc'f'][Bb][Aa][Bb] | !>![fac'f']2 [B,DB]2 [FAcfa]2 [FAf]2 | %29
 [FBd][dfd'][cc'][dd'] !>![fc'f'][Bb][Aa][Bb] | !>![cegc']3 !>![dbd'] !>![dbd']2 [FAc]2 | %31
 [GBd][dfd'][cc'][dd'] !>![fc'f'][Bb][Aa][Bb] | !>![ac'f'a']3 !>![bd'b'] !>![fc'f']3 [f'a'] | %33
 !arpeggio!!>![bd'f'b'][aa'][ff'][dd'] [fc'f'][gd'g'] !>![Bfb]>[cc'] |!>(! !>![dfbd']8!>)! || %35
!mf! z dcd fBAB | c3 d d4 | z dcd fBAB | F8 || z dcd fBAB | a2 z b f3- f/a/ | bafd fg B>c | d8 || %43
"^rit." [D,F,B,]4 D4 | F2 C4 D2- | D2 !arpeggio!!fermata![D,F,B,]6 |] %46
V:2
 z8 | z8 | z8 || z8 | z8 | F8 | E8 ||[K:treble] F/B,/B, F/B,/B, F/B,/A,/B,/ F/B,/B, | %8
 F/B,/B, F/B,/B, F/B,/F,/B,/ F/B,/B, | F/B,/B, F/B,/B, F/B,/G,/B,/ F/B,/B, | F/B,/B, F/B,/B, B,4 | %11
 F/B,/.B, F/B,/B, F/B,/A,/B,/ F/B,/B, | F/B,/B, F/B,/B, F/B,/F,/B,/ F/B,/B, | %13
 F/B,/B, F/B,/B, F/B,/G,/B,/ F/B,/B, | F/B,/B, F/B,/B, B,4 | gb z2 z4 | z8 || %17
[K:bass] !arpeggio![B,,D,F,]8 | [E,G,B,]8 | !arpeggio![B,,D,F,]8 | [C,E,]2 A,2 B,2 F,2 | %21
 B,,,B,, D,4 D,B,, | E,8 | D,,/B,,/D,/F,/ B,/F,/D,/B,,/ D,,/B,,/D,/B,,/ F,2 | B,8 || %25
 [B,,,,E,,,B,,,]B,,,/F,,/ D,,/B,,/D,/F,/ B,/F,/D,/B,,/ F,,/D,,/B,,,/B,,/ | %26
 [E,,,B,,,E,,]E,,/B,,/ G,,/E,/G,/B,/ E/B,/G,/E,/ [F,,,C,,F,,]A,,, | %27
 [G,,,D,,G,,]G,,/D,/ B,/G,/B,/D/ G/D/B,/G,/ D,/B,,/G,,/G,/ | %28
 [F,,,F,,]F,,/C,/ F,/C,/F,, [F,,,F,,]2 [A,,,A,,]2 | %29
 [B,,,,E,,,B,,,]B,,,/F,,/ D,,/B,,/D,/F,/ B,/F,/D,/B,,/ F,,/D,,/B,,,/B,,/ | %30
 [E,,,B,,,E,,]E,,/B,,/ G,/E,/G,/B,/ E/B,/G,/E,/ [F,,,C,,F,,]C,, | %31
 [G,,,D,,G,,]G,,/D,/ B,/G,/B,/D/ G/D/B,/G,/ D,/B,,/G,,/G,/ | %32
 [F,,,C,,F,,]/C,/F,,/C,/ A,/F,/A,/C/ F/C/A,/F,/ C,/A,,/F,,/A,,,/ | %33
 [D,,,A,,,D,,]D,,/B,,/ F,/B,,/D,/F,/ B,/F,/D,/B,,/ F,,/D,,/B,,,/=G,,,/ | %34
 [E,,,E,,]/B,,,/E,,/B,,/ E,/B,/[K:treble]E/G/ d4 || F/B,/B, F/B,/B, F/B,/A,/B,/ F/B,/B, | %36
 F/B,/B, F/B,/B, F/B,/F,/B,/ F/B,/B, | F/B,/B, F/B,/B, F/B,/G,/B,/ F/B,/B, | %38
 F/B,/B, F/B,/B, F/B,/B, F/B,/B, || F/B,/B, F/B,/B, F/B,/A,/B,/ F/B,/B, | %40
 F/B,/B, F/B,/B, F/B,/F,/B,/ F/B,/B, | F/B,/B, F/B,/B, F/B,/G,/B,/ F/B,/B, | %42
 F/B,/B, F/B,/B, !fermata!F4 ||[K:bass] !arpeggio![D,,F,,B,,]8- | [D,,F,,B,,]8 | z2 [B,,,B,,]6 |] %46

